X: 1871
T: Tez Geçse de Bir Sevgide
C: Sadettin Kaynak
O: Turkey
F: http://compmusic.upf.edu/node/140
N: nihavent--sarki--yuruksemai--tez_gecse_de--sadettin_kaynak
N: makam= nihavent
N: form= sarki
N: usul= yuruksemai = 6/8
M: 6/8
L: 1/16
K: C _B _e  
Q: 1/4=72
%%MIDI tuningsystem comma53
d3db4 a4g4 f8  | g3af3g a3gf3e d4z4  | \
w:  ARANAĞME  |   | 
f3ed3c g3fe3d c4z4  | 
w:   | 
e3dc3B f3ed3c B4z4  | G3AB8A3G d8  | \
w:   |   | 
c3ed3c B3AG3^F G8  | 
w:   | 
d3db4 a4g4 f8  | g3af3g a3gf3e d4z4  | \
w:  ARANAĞME  |   | 
f3ed3c g3fe3d c4z4  | 
w:   | 
e3dc3B f3ed3c B4z4  | G3AB8A3G d8  | \
w:   |   | 
c3ed3c B3AG3^F G8  | 
w:   | 
b4a4 g4f4 g4a4  | f4g4 f2_1/4e2e2d2 d8  | \
w:  Tez  geç se  de  bir   |  sev *  gi *  de  *  bin   | 
d3cB4 c4d4 d4g4  | d3ef3e d3cB3A G8  | 
w:  ha *  *  tı ra  var  |  dır   SAZ  | 
b4a4 g4f4 g4a4  | f4g4 f2_1/4e2e2d2 d8  | \
w:  Tez  geç se  de  bir   |  sev *  gi *  de  *  bin   | 
d3cB4 c4d4 d4g4  | d3ef3e d3cB3c d8  | 
w:  ha *  *  tı ra  var  |  dır    | 
f4f4 f4f2=ef g8  | e8 d2f2e2d2 d8  | \
w:  Sev da  de ni *  *  len   |  şey  ya *  şa *  yan   | 
c8 c4d2e2 d2c2B2A2  | 
w:  ha tı ra *  lar  | 
d3ef3e d3cB3c d8  | G4A4 B4A4 G8  | d8 e4^f4 g8  | \
w:  dır   SAZ  |  Sev da  de ni len   |  şey  ya şa yan   | 
f2e2d2c2 B3AG4 ^F2G2A2F2  | 
w:  ha *  *  *  tı *  ra lar  | 
G3DE2^F2 G3AB3A G8  | f4g4 g4g4 g4z4  | \
w:  dır   SAZ  |  Â şık_ o la nın   | 
f4g4 a4b4 a2g2f2_1/4e2  | 
w:  öm *  rü nün  her   | 
d4_1/4e4 f4g4 g2fga2ag  | g8 g2b2a2g2 f2_1/4e2d2c2  | \
w:  fas *  lı  ba har  |  dır   SAZ  | 
f4g4 g4g4 g4z4  | 
w:  Â şık_ o la nın   | 
f4g4 a4b4 a2g2f2_1/4e2  | d4=e4 f4g4 f2_1/4e2e2d2  | \
w:  öm *  rü nün  her   |  fas *  lı  ba har  | 
d2g2f2e2 d2c2B2c2 d4z4  | 
w:  dır    | 
f4f4 f4f2=ef g8  | e8 d2f2e2d2 d8  | \
w:  Sev da  de ni *  *  len   |  şey  ya *  şa *  yan   | 
c8 c4d2e2 d2c2B2A2  | 
w:  ha tı ra *  lar  | 
d3ef3e d3cB3c d8  | G4A4 B4A4 G8  | d8 e4^f4 g8  | \
w:  dır   SAZ  |  Sev da  de ni len   |  şey  ya şa yan   | 
f2e2d2c2 B3AG4 ^F2G2A2F2  | 
w:  ha *  *  *  tı *  ra lar  | 
G3DE2^F2 G3AB3A G8  | G4_1/4B4 B4B4 B8  | \
w:  dır   SAZ  |  Her  ha tı ra  bir   | 
_1/4B8 _B4_1/4B4 c8  | d8 c4d2=e2 d2c2_1/4B2A2  | 
w:  iz  bı ra kır   |  kalp te  si *  lin  | 
G3A_1/4B3A G3^F=E3F G8  | d4d4 d4d4 d8  | \
w:  mez   SAZ  |  Bir  giz li  a teş  | 
d8 ^c4d4 e8  | d4e4 ^f4g4 f2e2d2^c2  | 
w:  tir  do ku nul  |  maz  *  ve  bi lin  | 
d3e^f3e d3^cB3c d8  | g3ab4 a4g4 ^f8  | \
w:  mez   SAZ  |  Öm *  rün de  gü zel   | 
g4a4 ^f2e2e2d2 d8  | 
w:  sev *  me *  ye *  nin   | 
d3cB4 c4d4 d4g4  | d3ef3e d3cB3c d8  | \
w:  öm *  *  rü  ge çer   |  tez   SAZ  | 
f4f4 f4f2=ef g8  | 
w:  Sev da  de ni *  *  len   | 
e8 d2f2e2d2 d8  | c8 c4d2e2 d2c2B2A2  | \
w:  şey  ya *  şa *  yan   |  ha tı ra *  lar  | 
d3ef3e d3cB3c d8  | 
w:  dır   SAZ  | 
G4A4 B4A4 G8  | d8 e4^f4 g8  | f2e2d2c2 B3AG4 ^F2G2A2F2  | \
w:  Sev da  de ni len   |  şey  ya şa yan   |  ha *  *  *  tı *  ra lar  | 
G3DE2^F2 G3AB3A G8  | 
w:  dır   SAZ  | 
|


